frontend/public/svg/interface/rss.svg

<svg width="118" height="110" viewBox="0 0 118 110" fill="none" xmlns="http://www.w3.org/2000/svg">
<g clip-path="url(#clip0)">
<path d="M106.698 94.5722C107.21 76.0663 102.984 58.5956 94.5716 42.1474C89.1415 31.3274 81.7692 21.5876 72.8181 13.4084C69.7982 10.6785 66.2889 8.48299 62.9947 6.05525C62.37 5.59519 61.4815 5.3298 61.1097 4.73127C60.5689 3.86551 59.9312 2.63741 60.1834 1.82535C60.4128 1.36528 60.754 0.969533 61.176 0.674041C61.5981 0.378553 62.0876 0.192683 62.6002 0.133301C64.4319 0.209007 66.5248 0.408255 68.0036 1.34843C72.3846 4.13467 76.8585 6.93264 80.6922 10.3892C97.2249 25.2988 107.57 43.9845 113.355 65.2559C116.52 76.921 117.842 89.0055 117.271 101.076C117.212 102.84 116.916 104.589 116.391 106.275C116.073 107.35 115.398 108.285 114.475 108.926C113.552 109.568 112.438 109.878 111.315 109.805C109.124 109.61 107.358 107.974 106.835 105.509C106.704 104.636 106.66 103.752 106.705 102.871C106.689 100.105 106.698 97.3383 106.698 94.5722Z" fill="black"/>
<path d="M91.4628 100.191C91.546 101.622 91.535 103.056 91.429 104.486C91.2971 105.654 90.7706 106.744 89.9366 107.577C89.1027 108.409 88.01 108.936 86.8368 109.071C84.7314 109.265 82.6391 107.873 81.8318 105.478C81.4457 104.215 81.2299 102.908 81.1896 101.589C80.5396 90.16 78.6435 79.0105 74.4692 68.2622C67.6936 50.8173 55.5445 38.0631 39.8769 28.2796C38.9396 27.6972 37.8346 27.1945 37.2015 26.3591C36.6048 25.5729 36.0517 24.2153 36.3474 23.4356C36.5824 22.9135 36.9307 22.4496 37.3672 22.0774C37.8037 21.7052 38.3176 21.4339 38.872 21.2829C40.2884 21.1117 41.7245 21.3466 43.0112 21.9603C45.4097 23.1107 47.7255 24.4247 49.9421 25.8926C57.3196 30.6809 64.3449 35.9336 69.9758 42.7582C79.911 54.7577 86.5703 69.1047 89.3107 84.4134C90.2759 89.6248 90.8707 94.9042 91.6357 100.152L91.4628 100.191Z" fill="black"/>
<path d="M18.343 106.741C14.6894 106.836 11.0965 105.798 8.06125 103.772C2.29054 100.026 0.0278445 93.8172 2.08119 87.2949C3.38346 83.1395 5.91205 79.4707 9.33785 76.7653C10.8713 75.468 12.6913 74.5504 14.6493 74.0878C16.6073 73.6251 18.6474 73.6303 20.6029 74.1033C22.7674 74.575 24.9813 74.8325 27.1367 75.3398C33.2155 76.7705 36.0795 79.8207 36.9427 85.982C37.6512 90.5127 36.7721 95.1489 34.4531 99.1108C31.3539 104.386 26.3516 106.764 18.343 106.741ZM29.3675 89.4412C29.3227 85.1182 28.1455 83.5316 23.9485 82.2537C22.2507 81.736 20.514 81.3478 18.8136 80.8347C14.3871 79.4965 13.7085 79.6848 11.1325 83.5251C10.3306 84.7177 9.66227 85.9937 9.13954 87.3311C6.91395 93.0789 9.35729 97.6892 15.4036 99.1076C16.9113 99.4835 18.4658 99.6408 20.0187 99.5728C26.2847 99.1814 29.4312 95.6995 29.3675 89.4412Z" fill="black"/>
<path d="M53.2323 96.6649C53.3745 88.3153 50.7447 80.152 45.7508 73.442C40.7087 66.5728 34.8308 60.6306 27.2011 56.6149C25.4461 55.6909 23.5572 55.0121 21.7196 54.2447C19.5317 53.3304 18.6711 52.0214 19.1378 50.2556C19.5642 48.6437 20.8636 47.7068 23.0599 48.009C25.1537 48.2398 27.2002 48.7852 29.1296 49.6266C47.8282 58.4971 59.7311 72.5931 62.7087 93.4238C63.0086 95.3896 63.1856 97.3722 63.239 99.3593C63.2456 100.568 63.0394 101.768 62.63 102.906C62.3428 103.811 61.7676 104.599 60.9912 105.149C60.2149 105.7 59.2794 105.985 58.3263 105.96C57.3697 105.99 56.4304 105.7 55.6581 105.138C54.8859 104.575 54.3253 103.771 54.0657 102.853C53.5444 100.85 53.4884 98.731 53.2323 96.6649Z" fill="black"/>
</g>
<defs>
<clipPath id="clip0">
<rect width="117" height="110" fill="white" transform="translate(0.777344)"/>
</clipPath>
</defs>
</svg>

<svg xmlns="http://www.w3.org/2000/svg" width="118" height="110" fill="none" viewBox="0 0 118 110"><g fill="#000" clip-path="url(#a)"><path d="M106.698 94.572c.512-18.506-3.714-35.976-12.126-52.425a99.2 99.2 0 0 0-21.754-28.739c-3.02-2.73-6.53-4.925-9.823-7.353-.625-.46-1.514-.725-1.885-1.324-.541-.865-1.179-2.094-.927-2.906A3.09 3.09 0 0 1 62.6.133c1.832.076 3.925.275 5.404 1.215 4.38 2.787 8.855 5.585 12.688 9.041 16.533 14.91 26.878 33.595 32.663 54.867a115.9 115.9 0 0 1 3.916 35.82 19.7 19.7 0 0 1-.88 5.199 4.93 4.93 0 0 1-1.916 2.651 4.97 4.97 0 0 1-3.16.879c-2.191-.195-3.957-1.831-4.48-4.296a13.2 13.2 0 0 1-.13-2.638c-.016-2.766-.007-5.533-.007-8.299m-15.235 5.619a33 33 0 0 1-.034 4.295 5.2 5.2 0 0 1-1.492 3.091 5.24 5.24 0 0 1-3.1 1.494c-2.106.194-4.198-1.198-5.005-3.593a15 15 0 0 1-.642-3.889c-.65-11.429-2.546-22.579-6.72-33.327-6.776-17.445-18.925-30.199-34.593-39.982-.937-.583-2.042-1.085-2.675-1.92-.597-.787-1.15-2.145-.855-2.924a3.88 3.88 0 0 1 2.525-2.153 7.5 7.5 0 0 1 4.14.677 58 58 0 0 1 6.93 3.933c7.378 4.788 14.403 10.04 20.034 16.865A90.26 90.26 0 0 1 89.31 84.413c.965 5.212 1.56 10.491 2.325 15.739zm-73.12 6.55a17.7 17.7 0 0 1-10.282-2.969c-5.77-3.746-8.033-9.955-5.98-16.477a21.7 21.7 0 0 1 7.257-10.53 12.8 12.8 0 0 1 11.265-2.662c2.164.472 4.378.73 6.534 1.237 6.078 1.43 8.943 4.48 9.806 10.642a19.9 19.9 0 0 1-2.49 13.129c-3.1 5.275-8.101 7.653-16.11 7.63m11.025-17.3c-.045-4.323-1.223-5.91-5.42-7.187-1.697-.518-3.434-.906-5.134-1.42-4.427-1.338-5.105-1.15-7.681 2.691a19.6 19.6 0 0 0-1.993 3.806c-2.226 5.748.217 10.358 6.264 11.777a16.2 16.2 0 0 0 4.615.465c6.266-.392 9.412-3.873 9.349-10.132m23.864 7.224a37.8 37.8 0 0 0-7.481-23.223c-5.042-6.87-10.92-12.811-18.55-16.827-1.755-.924-3.644-1.603-5.481-2.37-2.188-.915-3.049-2.224-2.582-3.99.426-1.611 1.726-2.548 3.922-2.246 2.094.23 4.14.776 6.07 1.618 18.698 8.87 30.601 22.966 33.579 43.797.3 1.966.477 3.948.53 5.935a10.3 10.3 0 0 1-.609 3.547 4.37 4.37 0 0 1-1.639 2.243 4.4 4.4 0 0 1-2.665.811 4.3 4.3 0 0 1-2.668-.822 4.26 4.26 0 0 1-1.592-2.285c-.522-2.003-.578-4.122-.834-6.188"/></g><defs><clipPath id="a"><path fill="#fff" d="M.777 0h117v110h-117z"/></clipPath></defs></svg>
